!!!OTL: Ntyilo-Htyilo
!!!XEN: Bird Song
!!!CNT: African -- sub-Saharan -- Xhosa
**kern
*k[f#c#]
*M4/4
*MM76
8f#
8g
=1
8a
[8a
2a]
8r
8f#
=2
8a
8A
2A
8f#
8g
=3
8a
[8a
2a]
8r
8f#
=4
8a
8A
2A
8f#
8g
=5
8a
[8a
8a]
8d
8a
[8a
8a]
8a
=6
8b
8a
8g
8f#
4e
8a
8g
=7
(16f#
16e)
[8d
8d]
8f#
8e
8B
8c#
8c#
=8
4d
4r
4r
8f#
8g
=9
8a
[8a
2a]
8r
8f#
=10
8a
8A
2A
8f#
8g
=11
8a
[8a
2a]
8r
8f#
=12
8a
8A
2A
8f#
8g
=13
8a
[8a
8a]
8d
8a
[8a
8a]
8a
=14
8b
8a
8g
8f#
4e
8a
8g
=15
(16f#
16e)
[8d
8d]
8f#
8e
8B
8c#
8c#
=16
4d
4r
4r
8c#
8d
=17
8e
[8e
8e]
8f#
8g
8f#
8g
[8a
=18
8a]
8A
4A
4r
8c#
8d
=19
8e
[8e
8e]
8f#
8g
8f#
8g
[8a
=20
8a]
8A
4A
4r
8f#
8g
=21
8a
[8a
8a]
8d
8a
[8a
8a]
8a
=22
8b
8a
8g
8f#
4e
8a
8g
(16f#
16e)
[8d
8d]
8f#
8e
8B
8c#
8c#
=23
4d
4r
4r
8c#
8d
=24
8e
[8e
8e]
8f#
8g
8f#
8g
[8a
=25
8a]
8A
4A
4r
8c#
8d
=26
8e
[8e
8e]
8f#
8g
8f#
8g
[8a
=27
8a]
8A
4A
4r
8f#
8g
=28
8a
[8a
8a]
8d
8a
[8a
8a]
8a
=29
8b
8a
8g
8f#
4e
8a
8g
(16f#
16e)
[8d
8d]
8f#
8e
8B
8c#
8c#
=30
4d
4r
4r
8a
8g
=31
(16f#
16e)
[8d
8d]
8f#
8e
8B
8c#
8c#
=32
2.d
==
*-
!!!OPR: Miriam Makeba, "The World of African Song"
!!!PPP: Chicago
!!!PPR: Quadrangle Press (12 East Delaware Place)
!!!PDT: 1971///
!!!PPG: 37
!!!ENC: David Huron
!!!EMD: 1998/9/29/ Paul von Hippel updated this file in the following ways:
!!!EMD:  (1) changed the representation of slurs from curly braces to parentheses 
!!!EMD:  (2) changed freeform comments into reference records and tandem interpretations
!!!EMD:  (3) changed final barline from triple (===) to double (==)
!!!EMD:  (4) added key signature from printed source
!!!EEV: Version 2.0
